X: 4686
T: Boyne Hunt, The
R: reel
M: 4/4
K: Dmajor
B|A2FA DAFA|DAFA BGGB|A2FA DAFA|faeg fdd:|
g|fdad bdad|fdad beeg|fdad bdad|ABde fddg|
(3fed ad bdad|(3fed ad beeg|fadf gbeg|ABde fdd||

